src/actions/32/mail-mark-unread-new.svg

<svg xmlns="http://www.w3.org/2000/svg" viewBox="0 0 32 32">
  <defs id="defs3051">
    <style type="text/css" id="current-color-scheme">
      .ColorScheme-Text {
        color:#2e3440;
      }
      </style>
  </defs>
 <path 
     style="fill:currentColor;fill-opacity:1;stroke:none" 
     d="M 2 5 L 2 24.683594 L 2 27 L 19 27 L 19 26 L 3 26 L 3 25.111328 L 3.4296875 24.683594 L 12.785156 15.541016 L 16 18.683594 L 28.976562 6 L 29 6 L 29 14 L 30 14 L 30 5 L 2 5 z M 3 6 L 3.0234375 6 L 12.070312 14.841797 L 3 23.707031 L 3 6 z M 4.453125 6 L 27.546875 6 L 16 17.285156 L 4.453125 6 z M 24 15 L 22.851562 18.228516 L 19.757812 16.757812 L 21.228516 19.851562 L 18 21 L 21.228516 22.148438 L 19.757812 25.242188 L 22.851562 23.771484 L 24 27 L 25.148438 23.771484 L 28.242188 25.242188 L 26.771484 22.148438 L 30 21 L 26.771484 19.851562 L 28.242188 16.757812 L 25.148438 18.228516 L 24 15 z "
     class="ColorScheme-Text"
     />
</svg>

<svg viewBox="0 0 32 32" xmlns="http://www.w3.org/2000/svg">
 <defs>
  <style type="text/css">.ColorScheme-Text {
        color:#2e3440;
      }</style>
 </defs>
 <path class="ColorScheme-Text" d="m2 5v19.684 2.3164h17v-1h-16v-0.88867l0.42969-0.42773 9.3555-9.1426 3.2148 3.1426 12.977-12.684h0.023438v8h1v-9h-28zm1 1h0.023438l9.0469 8.8418-9.0703 8.8652v-17.707zm1.4531 0h23.094l-11.547 11.285-11.547-11.285zm19.547 9-1.1484 3.2285-3.0938-1.4707 1.4707 3.0938-3.2285 1.1484 3.2285 1.1484-1.4707 3.0938 3.0938-1.4707 1.1484 3.2285 1.1484-3.2285 3.0938 1.4707-1.4707-3.0938 3.2285-1.1484-3.2285-1.1484 1.4707-3.0938-3.0938 1.4707-1.1484-3.2285z" fill="currentColor"/>
</svg>
